<?xml version="1.0" encoding="UTF-8"?>
<map version="1.10" tiledversion="1.11.0" orientation="orthogonal" renderorder="right-down" width="30" height="30" tilewidth="64" tileheight="64" infinite="0" nextlayerid="7" nextobjectid="50">
 <editorsettings>
  <export target="../../../../C++/rpg/game/maps/1.json" format="json"/>
 </editorsettings>
 <tileset firstgid="1" name="tileset" tilewidth="64" tileheight="64" tilecount="54" columns="9">
  <image source="../../assets/Tilesheet/tileset.png" width="576" height="384"/>
 </tileset>
 <layer id="1" name="ground" width="30" height="30">
  <data encoding="csv">
11,14,14,14,11,11,11,11,11,11,11,11,11,11,11,11,11,11,11,11,14,14,14,11,11,11,11,11,11,11,
11,14,14,14,11,11,11,11,11,11,11,11,11,11,11,11,11,11,11,11,14,14,14,11,11,11,11,11,11,11,
11,14,14,14,11,11,11,11,11,11,11,11,11,11,11,11,11,11,11,11,14,14,14,11,11,11,11,11,11,11,
11,14,14,14,11,11,11,11,11,11,11,11,11,11,11,11,11,11,11,11,14,14,14,11,11,11,11,11,11,11,
11,14,14,14,11,11,11,11,11,11,11,11,11,11,11,11,11,11,11,11,14,14,14,11,11,11,11,11,11,11,
11,14,14,14,14,14,14,14,14,14,14,14,14,11,11,11,11,11,11,11,14,14,14,11,11,11,11,11,11,11,
11,14,14,14,14,14,14,14,14,14,14,14,14,11,11,11,11,11,11,11,14,14,14,11,11,11,11,11,11,11,
11,14,14,14,14,14,14,14,14,14,14,14,14,11,11,11,11,11,11,11,14,14,14,11,11,11,11,11,11,11,
11,11,11,11,11,11,11,11,11,11,14,14,14,11,11,11,11,11,11,11,14,14,14,11,11,11,11,11,11,11,
11,11,11,11,11,11,11,11,11,11,14,14,14,11,11,11,11,11,11,11,14,14,14,11,11,11,11,11,11,11,
11,11,11,11,11,11,11,11,11,11,14,14,14,11,11,11,11,11,11,11,14,14,14,14,14,14,14,14,14,14,
11,11,11,11,11,11,11,11,11,11,14,14,14,11,11,11,11,11,11,11,14,14,14,14,14,14,14,14,14,14,
11,11,11,11,11,11,11,11,11,11,14,14,14,11,11,11,11,11,11,11,14,14,14,14,14,14,14,14,14,14,
11,11,11,11,11,11,11,11,11,11,14,14,14,11,11,11,11,11,11,11,14,14,14,11,11,11,11,11,11,11,
14,14,14,14,14,14,14,14,14,14,14,14,14,11,11,11,11,11,11,11,14,14,14,11,11,11,11,11,11,11,
14,14,14,14,14,14,14,14,14,14,14,14,14,11,11,11,11,11,11,11,14,14,14,11,11,11,11,11,11,11,
14,14,14,14,14,14,14,14,14,14,14,14,14,11,11,11,11,11,11,11,14,14,14,11,11,11,11,11,11,11,
11,11,11,11,11,11,11,11,11,11,14,14,14,11,11,11,11,11,11,11,14,14,14,11,11,11,11,11,11,11,
11,11,11,11,11,11,11,11,11,11,14,14,14,11,11,11,11,11,11,11,14,14,14,11,11,11,11,11,11,11,
11,11,11,11,11,11,11,11,11,11,14,14,14,11,11,11,11,11,11,11,14,14,14,11,11,11,11,11,11,11,
11,11,11,11,11,11,11,11,11,11,14,14,14,11,11,11,11,11,11,11,14,14,14,11,11,11,11,11,11,11,
11,11,11,11,11,11,11,11,11,11,14,14,14,11,11,11,11,11,11,11,14,14,14,11,11,11,11,11,11,11,
11,11,11,11,11,11,11,11,11,11,14,14,14,11,11,11,11,11,11,11,14,14,14,11,11,11,11,11,11,11,
11,11,11,11,11,11,11,11,11,11,14,14,14,11,11,11,11,11,11,11,14,14,14,11,11,11,11,11,11,11,
11,11,11,11,11,11,11,11,11,11,14,14,14,11,11,11,11,11,11,11,14,14,14,11,11,11,11,11,11,11,
11,11,11,11,11,11,11,11,11,11,14,14,14,14,14,14,14,14,14,14,14,14,14,14,14,14,14,14,14,14,
11,11,11,11,11,11,11,11,11,11,14,14,14,14,14,14,14,14,14,14,14,14,14,14,14,14,14,14,14,14,
11,11,11,11,11,11,11,11,11,11,14,14,14,14,14,14,14,14,14,14,14,14,14,14,14,14,14,14,14,14,
11,11,11,11,11,11,11,11,11,11,11,11,11,11,11,11,11,11,11,11,11,11,11,11,11,11,11,11,11,11,
11,11,11,11,11,11,11,11,11,11,11,11,11,11,11,11,11,11,11,11,11,11,11,11,11,11,11,11,11,11
</data>
 </layer>
 <layer id="2" name="Trees" width="30" height="30">
  <data encoding="csv">
0,0,0,0,0,0,0,0,0,0,0,0,0,0,0,0,0,0,0,0,0,0,0,0,0,0,0,0,0,0,
0,0,0,0,0,0,0,0,0,0,0,0,0,0,0,0,0,0,0,0,0,0,0,0,0,0,0,0,0,0,
0,0,0,0,0,0,0,0,0,0,0,0,0,0,0,0,0,0,0,0,0,0,0,0,0,0,0,0,0,0,
0,0,0,0,0,0,0,0,0,0,0,0,0,0,0,0,0,0,0,0,0,0,0,0,0,0,0,0,0,0,
0,0,0,0,0,0,0,0,0,0,0,0,0,0,0,0,0,0,0,0,0,0,0,0,0,0,0,0,0,0,
0,0,0,0,0,0,0,0,0,0,0,0,0,31,0,0,0,0,0,0,0,0,0,0,0,0,0,0,0,0,
0,0,0,0,0,0,0,0,0,0,0,0,0,40,0,0,0,0,0,0,0,0,0,0,0,0,0,0,0,0,
0,0,0,0,0,0,0,0,0,0,0,0,0,31,0,0,0,0,0,0,0,0,0,0,0,0,0,0,0,0,
0,0,0,0,0,0,0,0,0,0,0,0,0,40,0,0,0,0,0,0,0,0,0,0,0,0,0,0,0,0,
0,0,0,0,0,0,0,0,0,0,0,0,0,31,0,0,0,0,0,0,0,0,0,0,0,0,0,0,0,0,
0,0,0,0,0,0,0,0,0,0,0,0,0,40,0,0,0,0,0,0,0,0,0,0,0,0,0,0,0,0,
0,0,0,0,0,0,0,0,0,0,0,0,0,31,0,0,0,0,0,0,0,0,0,0,0,0,0,0,0,0,
0,0,0,0,0,0,0,0,0,0,0,0,0,40,0,0,0,0,0,0,0,0,0,0,0,0,0,0,0,0,
0,0,0,0,0,0,0,0,0,0,0,0,0,31,0,0,0,0,0,0,0,0,0,0,0,0,0,0,0,0,
0,0,0,0,0,0,0,0,0,0,0,0,0,40,0,0,0,0,0,0,0,0,0,0,0,0,0,0,0,0,
0,0,0,0,0,0,0,0,0,0,0,0,0,31,0,0,0,0,0,0,0,0,0,0,0,0,0,0,0,0,
0,0,0,0,0,0,0,0,0,0,0,0,0,40,0,0,0,0,0,0,0,0,0,0,0,0,0,0,0,0,
0,0,0,0,0,0,0,0,0,0,0,0,0,31,0,0,0,0,0,0,0,0,0,0,0,0,0,0,0,0,
0,0,0,0,0,0,0,0,0,0,0,0,0,40,0,0,0,0,0,0,0,0,0,0,0,0,0,0,0,0,
0,0,0,0,0,0,0,0,0,0,0,0,0,31,0,0,0,0,0,0,0,0,0,0,0,0,0,0,0,0,
0,0,0,0,0,0,0,0,0,0,0,0,0,40,0,0,0,0,0,0,0,0,0,0,0,0,0,0,0,0,
0,0,0,0,0,0,0,0,0,0,0,0,0,31,0,0,0,0,0,0,0,0,0,0,0,0,0,0,0,0,
0,0,0,0,0,0,0,0,0,0,0,0,0,40,0,0,0,0,0,0,0,0,0,0,0,0,0,0,0,0,
0,0,0,0,0,0,0,0,0,0,0,0,0,31,0,0,0,0,0,0,0,0,0,0,0,0,0,0,0,0,
0,0,0,0,0,0,0,0,0,0,0,0,0,40,0,0,0,0,0,0,0,0,0,0,0,0,0,0,0,0,
0,0,0,0,0,0,0,0,0,0,0,0,0,0,0,0,0,0,0,0,0,0,0,0,0,0,0,0,0,0,
0,0,0,0,0,0,0,0,0,0,0,0,0,0,0,0,0,0,0,0,0,0,0,0,0,0,0,0,0,0,
0,0,0,0,0,0,0,0,0,0,0,0,0,0,0,0,0,0,0,0,0,0,0,0,0,0,0,0,0,0,
0,0,0,0,0,0,0,0,0,0,0,0,0,0,0,0,0,0,0,0,0,0,0,0,0,0,0,0,0,0,
0,0,0,0,0,0,0,0,0,0,0,0,0,0,0,0,0,0,0,0,0,0,0,0,0,0,0,0,0,0
</data>
 </layer>
</map>
